X: 72
T:Polly Put the Kettle on
% Nottingham Music Database
P:AAB
S:Kay Graham, via EF
M:4/4
L:1/4
K:D
P:A
f/2g/2|"D"a3/2b/2 "A7"ag|"D"fd de/2f/2|"G"gB Be/2d/2|
"A7"cA Af/2g/2|"D"a3/2b/2 "A7"ag|"D"fd dA|"G"B3/2=c/2 -"C"c/2B/2A|"D"d3:|
P:B
d/2e/2|"D"fd "A7"ge|"D"fd dd/2c/2|"G"BB e3/2d/2|"Em"cA "A7"GE|"D"FD "A7/e"GE|
"D/f+"AF "G"B3/2G/2|"D"FD "A7"A,C|"D"D/2E/2F/2G/2 "A7"A/2B/2c/2d/2|\
"D"fa "A7"g/2f/2g/2e/2|"D"fd de/2f/2|
"G"gb e/2f/2e/2d/2|"A7"cA Ad/2e/2|"D"fd "A7/e"ge|"D/f+"af "G"b3/2g/2|\
"D"fd "C"A=c|"D"d3||<end>
<start>
